src/sponsor_logos/logoplaste.svg

<svg xmlns="http://www.w3.org/2000/svg" xml:space="preserve" style="fill-rule:evenodd;clip-rule:evenodd;stroke-linejoin:round;stroke-miterlimit:2" viewBox="0 0 1250 191"><path d="M0-4.456c0-1.215-.018-2.43.011-3.645.009-.393-.107-.576-.494-.6-.587-.035-1.172-.113-1.758-.113-1.36-.001-2.133.617-2.378 1.947-.267 1.455-.215 2.938-.061 4.391.174 1.65.993 2.261 2.644 2.234.488-.008.977-.118 1.462-.096.519.024.598-.191.585-.65C-.022-2.143 0-3.3 0-4.456m3.168.94c0 1.96.04 3.921-.009 5.879C3.084 5.284 1.694 6.71-1.24 6.906a16.7 16.7 0 0 1-5.124-.458c-.513-.127-.754-.362-.726-.931.064-1.293-.357-1.547 1.552-1.333 1.322.148 2.653.235 3.989.174 1.2-.056 1.756-.753 1.582-1.955-.045-.31-.228-.203-.38-.187-.912.095-1.813.243-2.744.146-2.482-.257-4.061-1.528-4.593-3.964a13.8 13.8 0 0 1-.02-5.717c.527-2.582 2.256-3.933 5.01-4.069 1.789-.089 3.544.215 5.283.614.471.108.602.391.598.849-.017 2.137-.007 4.273-.007 6.409z" style="fill:#08080a;fill-rule:nonzero" transform="translate(545.613 132.657)scale(8.33333)"/><path d="M0 21.018c0-4.415.06-8.669-.034-12.92C-.065 6.711.299 5.727 1.337 4.8 2.914 3.393 4.352 1.83 5.847.33c.181-.182.347-.33.645-.329 4.782.01 9.564.007 14.344.007.072.196-.093.255-.178.34-1.84 1.847-3.689 3.685-5.522 5.539-.248.252-.506.313-.835.312-3.921-.007-7.842.006-11.762-.017-.526-.003-.648.142-.645.654.022 3.882.005 7.763.022 11.645.003.45-.122.772-.451 1.072-.473.43-.908.903-1.465 1.465" style="fill:#ef7a31;fill-rule:nonzero" transform="translate(.297 1.173)scale(8.33333)"/><path d="M0-20.987v10.831C0-8.98-.01-7.805.007-6.629c.004.321-.097.546-.323.77a1372 1372 0 0 0-5.52 5.535C-6.019-.14-6.189 0-6.484 0c-4.78-.01-9.56-.008-14.497-.008.679-.682 1.262-1.293 1.882-1.865.112-.103.374-.059.568-.059 3.899-.003 7.798-.015 11.696.011.554.004.675-.159.672-.686-.021-3.879-.006-7.759-.019-11.638-.002-.401.101-.693.391-.98 1.782-1.765 3.545-3.548 5.316-5.324.121-.121.252-.233.475-.438" style="fill:#ef7a31;fill-rule:nonzero" transform="translate(189.33 190.548)scale(8.33333)"/><path d="M0-4.314c0 1.235-.003 2.47.003 3.705.001.194-.095.446.271.457.744.021 1.482.152 2.23.113 1.072-.056 1.846-.615 2.075-1.66.368-1.681.357-3.39.032-5.074-.228-1.183-.819-1.659-1.994-1.815-.785-.104-1.564.065-2.346.092-.334.012-.27.27-.27.477Q-.001-6.166 0-4.314M-3.171-1.72c0-2.666.002-5.332-.002-7.999 0-.348 0-.679.427-.788 2.155-.549 4.333-.94 6.552-.528 2.4.445 3.686 2.033 4.017 4.369.25 1.767.281 3.566-.096 5.324-.499 2.326-2.337 3.801-4.74 3.88-.86.029-1.727.081-2.58-.095-.362-.075-.418.075-.413.396.016 1.156.007 2.313.005 3.47-.001.696-.108.801-.826.805-.529.002-1.059-.012-1.588.003-.549.016-.765-.228-.762-.779.014-2.686.006-5.372.006-8.058" style="fill:#08080a;fill-rule:nonzero" transform="translate(737.563 130.94)scale(8.33333)"/><path d="M0-2.394h1.35c1.295 0 1.429-.202.956-1.442a2.5 2.5 0 0 0-.401-.709c-.66-.797-1.878-1.067-2.882-.632-.874.378-1.575 1.596-1.491 2.535.025.278.18.248.356.248zM1.537-.133c-1.176 0-2.352.025-3.526-.012-.45-.014-.511.151-.477.533.141 1.554 1.141 2.52 2.761 2.524 1.212.004 2.424-.105 3.636-.166q.381-.02.762-.052.555-.043.544.513l.001.058c.096 1.878.102 1.915-1.748 2.191-1.55.231-3.12.329-4.677.058-2.366-.412-4.028-2.085-4.324-4.458-.23-1.844-.334-3.711.216-5.529.672-2.217 2.529-3.586 4.842-3.659 1.461-.047 2.849.145 4.048 1.062C5.1-5.92 5.606-4.294 5.728-2.499c.037.546.02 1.096.02 1.645-.001.489-.19.747-.744.731-1.155-.032-2.311-.01-3.467-.01" style="fill:#08080a;fill-rule:nonzero" transform="translate(1201.196 105.223)scale(8.33333)"/><path d="M0 .224c0-.529.028-1.06-.005-1.587-.094-1.5-.969-2.454-2.318-2.561-1.303-.104-2.31.655-2.554 2.136-.222 1.35-.241 2.741.021 4.091.274 1.415 1.14 2.091 2.424 2.078 1.23-.012 2.012-.725 2.35-2.11C.083 1.592-.024.906 0 .224M3.181.213c.014 1.036.041 2.072-.253 3.085C2.303 5.452.52 6.918-1.721 7.072c-1.08.074-2.155.027-3.174-.393-1.897-.783-2.913-2.284-3.17-4.246-.217-1.648-.286-3.339.104-4.97.783-3.274 3.467-4.385 6.157-4.075 3.183.366 4.874 2.323 4.983 5.532.015.43.002.862.002 1.293" style="fill:#08080a;fill-rule:nonzero" transform="translate(434.672 93.148)scale(8.33333)"/><path d="M0 .157c.014.771-.044 1.496.124 2.212C.41 3.58 1.267 4.332 2.412 4.356c1.251.026 2.126-.59 2.422-1.86.349-1.501.348-3.037.011-4.54-.29-1.291-1.179-1.946-2.382-1.913-1.225.033-2.064.784-2.349 2.055C-.043-1.202.026-.498 0 .157M-3.164.109c-.028-.923-.037-1.943.253-2.934C-2.008-5.9.616-6.951 3.222-6.632c3.058.374 4.562 1.965 4.916 5.094.182 1.613.215 3.245-.245 4.835-.658 2.275-2.567 3.701-4.947 3.767-1.531.044-2.967-.194-4.18-1.201-1.305-1.084-1.817-2.551-1.925-4.189-.033-.488-.005-.979-.005-1.565" style="fill:#08080a;fill-rule:nonzero" transform="translate(620.846 93.357)scale(8.33333)"/><path d="M0 4.994c-.057-.481.261-1.275-.115-1.58-.356-.289-1.118-.077-1.701-.085l-.059.002c-1.876.04-2.231.415-2.146 2.268.035.772.399 1.161 1.169 1.281.819.128 1.635.086 2.453-.003.277-.031.42-.127.405-.438C-.017 5.991 0 5.54 0 4.994m3.169-1.101c0 1.411-.014 2.821.009 4.231.007.4-.111.612-.505.713-2.286.591-4.594.74-6.91.264-2.109-.433-3.091-1.801-3.019-3.955.09-2.728 1.679-3.673 4.254-3.905.876-.079 1.761-.064 2.642-.067.277 0 .387-.068.366-.36C-.021.463.01.108-.01-.243c-.054-.921-.561-1.442-1.489-1.473a31 31 0 0 0-3.99.102c-.985.092-.995.063-.986-.907.014-1.519-.271-1.416 1.514-1.669 1.652-.234 3.305-.393 4.954.01 1.978.482 3.146 1.934 3.169 3.96.016 1.371.003 2.742.003 4.113z" style="fill:#08080a;fill-rule:nonzero" transform="translate(935.671 74.298)scale(8.33333)"/><path d="M0 13.934c-1.198.013-2.381-.132-3.554-.365-.718-.143-.816-.278-.818-1.03v-.353c0-1.113.094-1.168 1.229-1.031 1.224.147 2.456.241 3.692.191.97-.038 1.451-.596 1.2-1.362-.118-.36-.411-.568-.707-.753-1.141-.716-2.293-1.415-3.439-2.124-.964-.597-1.695-1.393-1.973-2.517-.531-2.153.647-3.93 2.843-4.288C.416-.014 2.332.236 4.235.644q.029.004.058.012c.398.143.593 1.165.388 2.04-.116.497-.486.328-.802.304-1.19-.09-2.375-.252-3.571-.243-.176.002-.356-.008-.528.022-.47.084-.944.181-1.066.754-.118.549.302.766.66.99 1.142.714 2.299 1.402 3.443 2.113.93.578 1.756 1.269 2.077 2.372.661 2.27-.654 4.336-3.025 4.805-.621.122-1.243.135-1.869.121" style="fill:#08080a;fill-rule:nonzero" transform="translate(1021.113 36.065)scale(8.33333)"/><path d="M0-3.806q-.001-3.174.001-6.349c0-.699.103-.799.821-.804a108 108 0 0 1 1.705.001c.67.007.773.112.774.793l.001 11.817c0 2.069.349 2.416 2.419 2.416 1.195 0 2.391.014 3.586-.006.501-.009.726.175.698.686-.022.41-.024.824.001 1.234.023.368-.149.561-.482.611-2.095.314-4.205.565-6.3.11C1.139 6.249.034 4.791.01 2.602-.013.466.005-1.67.005-3.806z" style="fill:#08080a;fill-rule:nonzero" transform="translate(272.88 94.748)scale(8.33333)"/><path d="M0-1.909c0-2.019.016-4.038-.01-6.057-.007-.558.172-.827.74-.887.561-.06 1.112-.208 1.672-.291.613-.091.785.063.793.679.007.529.023 1.06-.006 1.588-.021.37.074.508.474.493.842-.033 1.686-.015 2.528-.009.694.005.804.108.803.771-.003 1.78.183 1.633-1.584 1.63-.627-.001-1.254.01-1.881-.005-.249-.006-.339.058-.338.324.011 2.509.001 5.018.017 7.527.003.569.328.848.962.868.725.023 1.45.022 2.175.009.462-.008.666.152.659.65-.029 1.945.188 1.577-1.601 1.77-.985.106-1.993.146-2.985-.062C.931 6.776.072 5.836.042 4.323-.001 2.247.031.169.031-1.909z" style="fill:#08080a;fill-rule:nonzero" transform="translate(1083.38 92.223)scale(8.33333)"/><path d="M0 .074Q.001 4.102-.001 8.13c0 .874-.106.978-.972.979-.51 0-1.02-.008-1.529.002-.47.01-.684-.221-.69-.675l-.001-.353V-8.029c0-.924.048-.972.946-.973.51-.001 1.022.027 1.529-.007.557-.038.725.233.721.733C-.007-7.159 0-6.041 0-4.924z" style="fill:#08080a;fill-rule:nonzero" transform="translate(852.83 75.098)scale(8.33333)"/></svg>

<?xml version="1.0" encoding="UTF-8" standalone="no"?>
<!DOCTYPE svg PUBLIC "-//W3C//DTD SVG 1.1//EN" "http://www.w3.org/Graphics/SVG/1.1/DTD/svg11.dtd">
<svg width="100%" height="100%" viewBox="0 0 1250 191" version="1.1" xmlns="http://www.w3.org/2000/svg" xmlns:xlink="http://www.w3.org/1999/xlink" xml:space="preserve" style="fill-rule:evenodd;clip-rule:evenodd;stroke-linejoin:round;stroke-miterlimit:2;">
    <g transform="matrix(1,0,0,1,-2.67084,-2.80397)">
        <g transform="matrix(8.33333,0,0,8.33333,-1968.49,-2432.18)">
            <g transform="matrix(1,0,0,1,302.013,308.117)">
                <path d="M0,-4.456C0,-5.671 -0.018,-6.886 0.011,-8.101C0.02,-8.494 -0.096,-8.677 -0.483,-8.701C-1.07,-8.736 -1.655,-8.814 -2.241,-8.814C-3.601,-8.815 -4.374,-8.197 -4.619,-6.867C-4.886,-5.412 -4.834,-3.929 -4.68,-2.476C-4.506,-0.826 -3.687,-0.215 -2.036,-0.242C-1.548,-0.25 -1.059,-0.36 -0.574,-0.338C-0.055,-0.314 0.024,-0.529 0.011,-0.988C-0.022,-2.143 0,-3.3 0,-4.456M3.168,-3.516C3.168,-1.556 3.208,0.405 3.159,2.363C3.084,5.284 1.694,6.71 -1.24,6.906C-2.967,7.021 -4.678,6.863 -6.364,6.448C-6.877,6.321 -7.118,6.086 -7.09,5.517C-7.026,4.224 -7.447,3.97 -5.538,4.184C-4.216,4.332 -2.885,4.419 -1.549,4.358C-0.349,4.302 0.207,3.605 0.033,2.403C-0.012,2.093 -0.195,2.2 -0.347,2.216C-1.259,2.311 -2.16,2.459 -3.091,2.362C-5.573,2.105 -7.152,0.834 -7.684,-1.602C-8.096,-3.49 -8.088,-5.433 -7.704,-7.319C-7.177,-9.901 -5.448,-11.252 -2.694,-11.388C-0.905,-11.477 0.85,-11.173 2.589,-10.774C3.06,-10.666 3.191,-10.383 3.187,-9.925C3.17,-7.788 3.18,-5.652 3.18,-3.516L3.168,-3.516Z" style="fill:rgb(8,8,10);fill-rule:nonzero;"/>
            </g>
        </g>
        <g transform="matrix(8.33333,0,0,8.33333,-1968.49,-2432.18)">
            <g transform="matrix(1,0,0,1,236.575,292.339)">
                <path d="M0,21.018C0,16.603 0.06,12.349 -0.034,8.098C-0.065,6.711 0.299,5.727 1.337,4.8C2.914,3.393 4.352,1.83 5.847,0.33C6.028,0.148 6.194,0 6.492,0.001C11.274,0.011 16.056,0.008 20.836,0.008C20.908,0.204 20.743,0.263 20.658,0.348C18.818,2.195 16.969,4.033 15.136,5.887C14.888,6.139 14.63,6.2 14.301,6.199C10.38,6.192 6.459,6.205 2.539,6.182C2.013,6.179 1.891,6.324 1.894,6.836C1.916,10.718 1.899,14.599 1.916,18.481C1.919,18.931 1.794,19.253 1.465,19.553C0.992,19.983 0.557,20.456 0,21.018" style="fill:rgb(239,122,49);fill-rule:nonzero;"/>
            </g>
        </g>
        <g transform="matrix(8.33333,0,0,8.33333,-1968.49,-2432.18)">
            <g transform="matrix(1,0,0,1,259.259,315.064)">
                <path d="M0,-20.987L0,-10.156C0,-8.98 -0.01,-7.805 0.007,-6.629C0.011,-6.308 -0.09,-6.083 -0.316,-5.859C-2.163,-4.021 -4,-2.172 -5.836,-0.324C-6.019,-0.14 -6.189,0 -6.484,0C-11.264,-0.01 -16.044,-0.008 -20.981,-0.008C-20.302,-0.69 -19.719,-1.301 -19.099,-1.873C-18.987,-1.976 -18.725,-1.932 -18.531,-1.932C-14.632,-1.935 -10.733,-1.947 -6.835,-1.921C-6.281,-1.917 -6.16,-2.08 -6.163,-2.607C-6.184,-6.486 -6.169,-10.366 -6.182,-14.245C-6.184,-14.646 -6.081,-14.938 -5.791,-15.225C-4.009,-16.99 -2.246,-18.773 -0.475,-20.549C-0.354,-20.67 -0.223,-20.782 0,-20.987" style="fill:rgb(239,122,49);fill-rule:nonzero;"/>
            </g>
        </g>
        <g transform="matrix(8.33333,0,0,8.33333,-1968.49,-2432.18)">
            <g transform="matrix(1,0,0,1,325.047,307.911)">
                <path d="M0,-4.314C0,-3.079 -0.003,-1.844 0.003,-0.609C0.004,-0.415 -0.092,-0.163 0.274,-0.152C1.018,-0.131 1.756,-0 2.504,-0.039C3.576,-0.095 4.35,-0.654 4.579,-1.699C4.947,-3.38 4.936,-5.089 4.611,-6.773C4.383,-7.956 3.792,-8.432 2.617,-8.588C1.832,-8.692 1.053,-8.523 0.271,-8.496C-0.063,-8.484 0.001,-8.226 0.001,-8.019C-0.001,-6.784 0,-5.549 0,-4.314M-3.171,-1.72C-3.171,-4.386 -3.169,-7.052 -3.173,-9.719C-3.173,-10.067 -3.173,-10.398 -2.746,-10.507C-0.591,-11.056 1.587,-11.447 3.806,-11.035C6.206,-10.59 7.492,-9.002 7.823,-6.666C8.073,-4.899 8.104,-3.1 7.727,-1.342C7.228,0.984 5.39,2.459 2.987,2.538C2.127,2.567 1.26,2.619 0.407,2.443C0.045,2.368 -0.011,2.518 -0.006,2.839C0.01,3.995 0.001,5.152 -0.001,6.309C-0.002,7.005 -0.109,7.11 -0.827,7.114C-1.356,7.116 -1.886,7.102 -2.415,7.117C-2.964,7.133 -3.18,6.889 -3.177,6.338C-3.163,3.652 -3.171,0.966 -3.171,-1.72" style="fill:rgb(8,8,10);fill-rule:nonzero;"/>
            </g>
        </g>
        <g transform="matrix(8.33333,0,0,8.33333,-1968.49,-2432.18)">
            <g transform="matrix(1,0,0,1,380.683,304.825)">
                <path d="M0,-2.394L1.35,-2.394C2.645,-2.394 2.779,-2.596 2.306,-3.836C2.208,-4.092 2.082,-4.331 1.905,-4.545C1.245,-5.342 0.027,-5.612 -0.977,-5.177C-1.851,-4.799 -2.552,-3.581 -2.468,-2.642C-2.443,-2.364 -2.288,-2.394 -2.112,-2.394L0,-2.394M1.537,-0.133C0.361,-0.133 -0.815,-0.108 -1.989,-0.145C-2.439,-0.159 -2.5,0.006 -2.466,0.388C-2.325,1.942 -1.325,2.908 0.295,2.912C1.507,2.916 2.719,2.807 3.931,2.746C4.185,2.734 4.439,2.715 4.693,2.694C5.064,2.665 5.243,2.836 5.237,3.207C5.237,3.226 5.237,3.246 5.238,3.265C5.334,5.143 5.34,5.18 3.49,5.456C1.94,5.687 0.37,5.785 -1.187,5.514C-3.553,5.102 -5.215,3.429 -5.511,1.056C-5.741,-0.788 -5.845,-2.655 -5.295,-4.473C-4.623,-6.69 -2.766,-8.059 -0.453,-8.132C1.008,-8.179 2.396,-7.987 3.595,-7.07C5.1,-5.92 5.606,-4.294 5.728,-2.499C5.765,-1.953 5.748,-1.403 5.748,-0.854C5.747,-0.365 5.558,-0.107 5.004,-0.123C3.849,-0.155 2.693,-0.133 1.537,-0.133" style="fill:rgb(8,8,10);fill-rule:nonzero;"/>
            </g>
        </g>
        <g transform="matrix(8.33333,0,0,8.33333,-1968.49,-2432.18)">
            <g transform="matrix(1,0,0,1,288.7,303.376)">
                <path d="M0,0.224C0,-0.305 0.028,-0.836 -0.005,-1.363C-0.099,-2.863 -0.974,-3.817 -2.323,-3.924C-3.626,-4.028 -4.633,-3.269 -4.877,-1.788C-5.099,-0.438 -5.118,0.953 -4.856,2.303C-4.582,3.718 -3.716,4.394 -2.432,4.381C-1.202,4.369 -0.42,3.656 -0.082,2.271C0.083,1.592 -0.024,0.906 0,0.224M3.181,0.213C3.195,1.249 3.222,2.285 2.928,3.298C2.303,5.452 0.52,6.918 -1.721,7.072C-2.801,7.146 -3.876,7.099 -4.895,6.679C-6.792,5.896 -7.808,4.395 -8.065,2.433C-8.282,0.785 -8.351,-0.906 -7.961,-2.537C-7.178,-5.811 -4.494,-6.922 -1.804,-6.612C1.379,-6.246 3.07,-4.289 3.179,-1.08C3.194,-0.65 3.181,-0.218 3.181,0.213" style="fill:rgb(8,8,10);fill-rule:nonzero;"/>
            </g>
        </g>
        <g transform="matrix(8.33333,0,0,8.33333,-1968.49,-2432.18)">
            <g transform="matrix(1,0,0,1,311.041,303.401)">
                <path d="M0,0.157C0.014,0.928 -0.044,1.653 0.124,2.369C0.41,3.58 1.267,4.332 2.412,4.356C3.663,4.382 4.538,3.766 4.834,2.496C5.183,0.995 5.182,-0.541 4.845,-2.044C4.555,-3.335 3.666,-3.99 2.463,-3.957C1.238,-3.924 0.399,-3.173 0.114,-1.902C-0.043,-1.202 0.026,-0.498 0,0.157M-3.164,0.109C-3.192,-0.814 -3.201,-1.834 -2.911,-2.825C-2.008,-5.9 0.616,-6.951 3.222,-6.632C6.28,-6.258 7.784,-4.667 8.138,-1.538C8.32,0.075 8.353,1.707 7.893,3.297C7.235,5.572 5.326,6.998 2.946,7.064C1.415,7.108 -0.021,6.87 -1.234,5.863C-2.539,4.779 -3.051,3.312 -3.159,1.674C-3.192,1.186 -3.164,0.695 -3.164,0.109" style="fill:rgb(8,8,10);fill-rule:nonzero;"/>
            </g>
        </g>
        <g transform="matrix(8.33333,0,0,8.33333,-1968.49,-2432.18)">
            <g transform="matrix(1,0,0,1,348.82,301.114)">
                <path d="M0,4.994C-0.057,4.513 0.261,3.719 -0.115,3.414C-0.471,3.125 -1.233,3.337 -1.816,3.329C-1.836,3.329 -1.856,3.331 -1.875,3.331C-3.751,3.371 -4.106,3.746 -4.021,5.599C-3.986,6.371 -3.622,6.76 -2.852,6.88C-2.033,7.008 -1.217,6.966 -0.399,6.877C-0.122,6.846 0.021,6.75 0.006,6.439C-0.017,5.991 0,5.54 0,4.994M3.169,3.893C3.169,5.304 3.155,6.714 3.178,8.124C3.185,8.524 3.067,8.736 2.673,8.837C0.387,9.428 -1.921,9.577 -4.237,9.101C-6.346,8.668 -7.328,7.3 -7.256,5.146C-7.166,2.418 -5.577,1.473 -3.002,1.241C-2.126,1.162 -1.241,1.177 -0.36,1.174C-0.083,1.174 0.027,1.106 0.006,0.814C-0.021,0.463 0.01,0.108 -0.01,-0.243C-0.064,-1.164 -0.571,-1.685 -1.499,-1.716C-2.83,-1.761 -4.16,-1.74 -5.489,-1.614C-6.474,-1.522 -6.484,-1.551 -6.475,-2.521C-6.461,-4.04 -6.746,-3.937 -4.961,-4.19C-3.309,-4.424 -1.656,-4.583 -0.007,-4.18C1.971,-3.698 3.139,-2.246 3.162,-0.22C3.178,1.151 3.165,2.522 3.165,3.893L3.169,3.893Z" style="fill:rgb(8,8,10);fill-rule:nonzero;"/>
            </g>
        </g>
        <g transform="matrix(8.33333,0,0,8.33333,-1968.49,-2432.18)">
            <g transform="matrix(1,0,0,1,359.073,296.526)">
                <path d="M0,13.934C-1.198,13.947 -2.381,13.802 -3.554,13.569C-4.272,13.426 -4.37,13.291 -4.372,12.539C-4.373,12.421 -4.372,12.304 -4.372,12.186C-4.372,11.073 -4.278,11.018 -3.143,11.155C-1.919,11.302 -0.687,11.396 0.549,11.346C1.519,11.308 2,10.75 1.749,9.984C1.631,9.624 1.338,9.416 1.042,9.231C-0.099,8.515 -1.251,7.816 -2.397,7.107C-3.361,6.51 -4.092,5.714 -4.37,4.59C-4.901,2.437 -3.723,0.66 -1.527,0.302C0.416,-0.014 2.332,0.236 4.235,0.644C4.254,0.648 4.274,0.65 4.293,0.656C4.691,0.799 4.886,1.821 4.681,2.696C4.565,3.193 4.195,3.024 3.879,3C2.689,2.91 1.504,2.748 0.308,2.757C0.132,2.759 -0.048,2.749 -0.22,2.779C-0.69,2.863 -1.164,2.96 -1.286,3.533C-1.404,4.082 -0.984,4.299 -0.626,4.523C0.516,5.237 1.673,5.925 2.817,6.636C3.747,7.214 4.573,7.905 4.894,9.008C5.555,11.278 4.24,13.344 1.869,13.813C1.248,13.935 0.626,13.948 0,13.934" style="fill:rgb(8,8,10);fill-rule:nonzero;"/>
            </g>
        </g>
        <g transform="matrix(8.33333,0,0,8.33333,-1968.49,-2432.18)">
            <g transform="matrix(1,0,0,1,269.285,303.568)">
                <path d="M0,-3.806C0,-5.922 -0.001,-8.039 0.001,-10.155C0.001,-10.854 0.104,-10.954 0.822,-10.959C1.39,-10.962 1.959,-10.964 2.527,-10.958C3.197,-10.951 3.3,-10.846 3.301,-10.165C3.302,-6.226 3.301,-2.287 3.302,1.652C3.302,3.721 3.651,4.068 5.721,4.068C6.916,4.068 8.112,4.082 9.307,4.062C9.808,4.053 10.033,4.237 10.005,4.748C9.983,5.158 9.981,5.572 10.006,5.982C10.029,6.35 9.857,6.543 9.524,6.593C7.429,6.907 5.319,7.158 3.224,6.703C1.139,6.249 0.034,4.791 0.01,2.602C-0.013,0.466 0.005,-1.67 0.005,-3.806L0,-3.806Z" style="fill:rgb(8,8,10);fill-rule:nonzero;"/>
            </g>
        </g>
        <g transform="matrix(8.33333,0,0,8.33333,-1968.49,-2432.18)">
            <g transform="matrix(1,0,0,1,366.545,303.265)">
                <path d="M0,-1.909C0,-3.928 0.016,-5.947 -0.01,-7.966C-0.017,-8.524 0.162,-8.793 0.73,-8.853C1.291,-8.913 1.842,-9.061 2.402,-9.144C3.015,-9.235 3.187,-9.081 3.195,-8.465C3.202,-7.936 3.218,-7.405 3.189,-6.877C3.168,-6.507 3.263,-6.369 3.663,-6.384C4.505,-6.417 5.349,-6.399 6.191,-6.393C6.885,-6.388 6.995,-6.285 6.994,-5.622C6.991,-3.842 7.177,-3.989 5.41,-3.992C4.783,-3.993 4.156,-3.982 3.529,-3.997C3.28,-4.003 3.19,-3.939 3.191,-3.673C3.202,-1.164 3.192,1.345 3.208,3.854C3.211,4.423 3.536,4.702 4.17,4.722C4.895,4.745 5.62,4.744 6.345,4.731C6.807,4.723 7.011,4.883 7.004,5.381C6.975,7.326 7.192,6.958 5.403,7.151C4.418,7.257 3.41,7.297 2.418,7.089C0.931,6.776 0.072,5.836 0.042,4.323C-0.001,2.247 0.031,0.169 0.031,-1.909L0,-1.909" style="fill:rgb(8,8,10);fill-rule:nonzero;"/>
            </g>
        </g>
        <g transform="matrix(8.33333,0,0,8.33333,-1968.49,-2432.18)">
            <g transform="matrix(1,0,0,1,338.879,301.21)">
                <path d="M0,0.074C0,2.759 0.001,5.445 -0.001,8.13C-0.001,9.004 -0.107,9.108 -0.973,9.109C-1.483,9.109 -1.993,9.101 -2.502,9.111C-2.972,9.121 -3.186,8.89 -3.192,8.436C-3.193,8.318 -3.193,8.2 -3.193,8.083L-3.193,-8.029C-3.193,-8.953 -3.145,-9.001 -2.247,-9.002C-1.737,-9.003 -1.225,-8.975 -0.718,-9.009C-0.161,-9.047 0.007,-8.776 0.003,-8.276C-0.007,-7.159 0,-6.041 0,-4.924L0,0.074Z" style="fill:rgb(8,8,10);fill-rule:nonzero;"/>
            </g>
        </g>
    </g>
</svg>
